X: 9
T: No_115_The_Approach_of_the_Storm.krn
N: Derived from No_115_The_Approach_of_the_Storm.krn
%%abc-version 2.0
%%abcx-abcm2ps-target-version 5.9.1 (29 Sep 2008)
%%abc-creator hum2abc beta
%%abcx-conversion-date 2019/03/15 08:29:13
%%humdrum-veritas 2167329641
%%humdrum-veritas-data 3195322047
%%linebreak <none>
%%barnumbers 0
L: 1/8
M: 3/4
%%staves {1 2}
V: 1 clef=bass
V: 2 clef=bass
K: Bb
[V:1] [K:clef=bass][M:3/4]F4F3/D/ | 
[V:2] [K:clef=bass][M:3/4]z6 | 
[V:1] F4(3FDC | 
[V:2] (3!accent!G,, z G,, (3!accent!G,, z G,, (3!accent!G,, z G,, | 
[V:1] B,3/B,/B,3B, | 
[V:2] z6 | 
[V:1] B,6 | 
[V:2] z6 | 
[V:1] F4F3/D/ | 
[V:2] z6 | 
[V:1] F4(3FDC | 
[V:2] z6 | 
[V:1] B,3/B,/B,3B, ||  
[V:2] z6 ||  
[V:1] [M:2/4]B,4- | 
[V:2] [M:2/4]z4 | 
[V:1] B,2D3/D/ ||  
[V:2] z4 ||  
[V:1] [M:3/4]F4(3(F/D)F | 
[V:2] [M:3/4]z6 | 
[V:1] B,4B,3/G,/ ||  
[V:2] z6 ||  
[V:1] [M:2/4]B,2(3(D/C)D ||  
[V:2] [M:2/4]z4 ||  
[V:1] [M:3/4]B,4(3(G,/F,)G, | 
[V:2] [M:3/4]z6 | 
[V:1] F,4(3F,D,C, | 
[V:2] z6 | 
[V:1] B,,3/B,,/B,,3B,, | 
[V:2] z6 | 
[V:1] B,,6 |]  
[V:2] z6 |]  



